assets/images/splash/languageIcon.svg

<svg width="36" height="34" viewBox="0 0 36 34" fill="none" xmlns="http://www.w3.org/2000/svg">
<path d="M16.632 11.0945C16.725 10.73 16.782 10.4555 16.8345 10.187L15.1845 9.866L15.021 10.616C14.4645 10.5335 13.8705 10.5245 13.272 10.5845C13.2855 10.1825 13.3095 9.788 13.3455 9.4085H15.189V7.8455H13.566C13.647 7.448 13.7145 7.2095 13.782 6.983L12.171 6.5C12.0525 6.8945 11.955 7.2815 11.8545 7.8455H10.017V9.4085H11.655C11.6115 9.9125 11.586 10.436 11.5785 10.9655C9.768 11.63 9 12.8975 9 14.045C9 15.401 10.071 16.595 11.763 16.442C13.8645 16.25 15.2685 14.663 16.0905 12.7115C16.941 13.202 17.298 14.0255 16.977 14.789C16.6815 15.4955 15.807 16.1675 14.139 16.133V17.8145C15.99 17.843 17.811 17.1395 18.5265 15.44C19.2225 13.7795 18.426 11.9645 16.632 11.0945ZM14.463 12.2435C14.2005 12.824 13.8555 13.4015 13.416 13.856C13.3485 13.3715 13.302 12.842 13.278 12.275C13.6785 12.2225 14.0835 12.2135 14.463 12.2435ZM11.622 12.7865C11.667 13.496 11.748 14.15 11.859 14.7335C10.362 15.008 10.302 13.532 11.622 12.7865ZM3 13.028C3 15.8375 4.2735 17.4425 5.5245 18.9425C5.571 20.4425 5.652 21.4445 5.025 23.717C7.647 22.88 8.082 22.55 9.537 21.656C11.037 22.022 11.748 22.2275 13.4535 22.3925C13.3125 23.4545 13.332 24.305 13.536 25.427C12.408 25.337 11.244 25.16 10.041 24.866C7.9455 26.1515 3.3195 27.4535 0.0675 28.0385C1.284 25.646 2.6295 22.361 2.559 20.0705C0.9225 18.113 0 15.593 0 13.028C0 5.789 7.0785 0.5 15 0.5C22.8555 0.5 29.9655 5.726 29.997 12.977C29.031 12.7145 28.014 12.5615 26.9655 12.506C26.622 7.496 21.396 3.5 15 3.5C8.3835 3.5 3 7.775 3 13.028ZM26.4855 21.1715L27.573 24.2825H25.4055L26.4855 21.1715ZM36 23.6705C36 18.9335 31.3665 15.47 26.181 15.47C21.027 15.47 16.362 18.9095 16.362 23.6705C16.362 27.8705 20.3115 31.8335 26.109 31.8335C27.1575 31.8335 28.269 31.703 29.4285 31.4225C30.7995 32.264 33.828 33.113 35.9565 33.5C35.1615 31.9325 34.281 29.7815 34.3245 28.2815C35.3955 27.002 36 25.3505 36 23.6705ZM28.7235 27.5L28.0395 25.595H24.9465L24.27 27.5H22.5L25.6485 19.25H27.3L30.4365 27.5H28.7235Z" fill="#4D4D4D"/>
</svg>

<svg xmlns="http://www.w3.org/2000/svg" width="36" height="34" fill="none" xmlns:v="https://vecta.io/nano"><path d="M16.632 11.095l.202-.908-1.65-.321-.163.75c-.557-.082-1.151-.091-1.749-.031l.073-1.176h1.844V7.846h-1.623l.216-.863-1.611-.483a11.23 11.23 0 0 0-.316 1.346h-1.838v1.563h1.638l-.076 1.557C9.768 11.63 9 12.898 9 14.045c0 1.356 1.071 2.55 2.763 2.397 2.101-.192 3.505-1.779 4.327-3.731.851.491 1.207 1.314.887 2.078-.296.707-1.17 1.379-2.838 1.344v1.681c1.851.029 3.672-.675 4.387-2.374.696-1.66-.101-3.476-1.894-4.345zm-2.169 1.149c-.262.581-.607 1.158-1.047 1.613a16.61 16.61 0 0 1-.138-1.581c.4-.053.806-.062 1.185-.032zm-2.841.543c.045.71.126 1.364.237 1.947-1.497.274-1.557-1.201-.237-1.947zM3 13.028c0 2.81 1.274 4.414 2.524 5.914.046 1.5.128 2.502-.499 4.775 2.622-.837 3.057-1.167 4.512-2.061 1.5.366 2.211.572 3.916.736a9.01 9.01 0 0 0 .082 3.035 22.06 22.06 0 0 1-3.495-.561C7.946 26.152 3.32 27.454.068 28.039c1.217-2.392 2.562-5.677 2.492-7.968A11.05 11.05 0 0 1 0 13.028C0 5.789 7.079.5 15 .5c7.855 0 14.965 5.226 14.997 12.477-.966-.263-1.983-.415-3.032-.471C26.622 7.496 21.396 3.5 15 3.5c-6.616 0-12 4.275-12 9.528zm23.486 8.144l1.088 3.111h-2.168l1.08-3.111zM36 23.671c0-4.737-4.634-8.2-9.819-8.2-5.154 0-9.819 3.44-9.819 8.201 0 4.2 3.95 8.163 9.747 8.163 1.048 0 2.16-.131 3.319-.411 1.371.842 4.4 1.691 6.528 2.078-.795-1.567-1.675-3.718-1.632-5.218A7.23 7.23 0 0 0 36 23.671zM28.724 27.5l-.684-1.905h-3.093L24.27 27.5H22.5l3.148-8.25H27.3l3.136 8.25h-1.713z" fill="#4d4d4d"/></svg>
